X: 8
T: Sixpenny Money
Z: Aisling D
S: https://thesession.org/tunes/387#setting49051
R: jig
M: 6/8
L: 1/8
K: Dmaj
|:fAA fAA|BAG FGE|DED AFA|def e2d|
fAA fAA|BAG FGE|DED AFA|def e2d:|
|:faf gfg|afd ede|faf gfg|afd e2d|
faf gfg|afd edB|ABA AFA|def e2d:|

